assets/images/cryptocurrency.svg

<svg fill="none" height="17" viewBox="0 0 11 17" width="11" xmlns="http://www.w3.org/2000/svg"><g fill="#fff" opacity=".8"><path d="m5.44513.884613-.10138.344577v9.99871l.10138.1012 4.64127-2.74343z"/><path d="m5.44516.884613-4.641312 7.701057 4.641312 2.74353v-4.85312z"/><path d="m5.44513 12.8392-.05713.0696v3.5618l.05713.1669 4.64407-6.5404z"/><path d="m5.44516 16.6375v-3.7983l-4.641312-2.7421z"/><path d="m5.44511 11.3291 4.64119-2.7434-4.64119-2.1096z"/><path d="m.803848 8.58567 4.641232 2.74343v-4.85303z"/></g></svg>

<svg width="11" height="17" viewBox="0 0 11 17" fill="none" xmlns="http://www.w3.org/2000/svg">
<g opacity="0.8">
<path d="M5.44513 0.884613L5.34375 1.22919V11.2279L5.44513 11.3291L10.0864 8.58567L5.44513 0.884613Z" fill="white"/>
<path d="M5.44516 0.884613L0.803848 8.58567L5.44516 11.3292V6.47608V0.884613Z" fill="white"/>
<path d="M5.44513 12.8392L5.388 12.9088V16.4706L5.44513 16.6375L10.0892 10.0971L5.44513 12.8392Z" fill="white"/>
<path d="M5.44516 16.6375V12.8392L0.803848 10.0971L5.44516 16.6375Z" fill="white"/>
<path d="M5.44511 11.3291L10.0863 8.5857L5.44511 6.4761V11.3291Z" fill="white"/>
<path d="M0.803848 8.58567L5.44508 11.3291V6.47607L0.803848 8.58567Z" fill="white"/>
</g>
</svg>
